X: 72
T: 72. Erhalt uns, Herr, bei deinem Wort
N: Derived from chor072.krn
C: Johann Sebastian Bach
%%abc-version 2.0
%%abcx-abcm2ps-target-version 5.9.1 (29 Sep 2008)
%%abc-creator hum2abc beta
%%abcx-conversion-date 2019/03/11 17:28:18
%%abc-edited-by Craig Stuart Sapp
%%humdrum-veritas 2386078851
%%humdrum-veritas-data 2846270524
%%
%%barnumbers 0
L: 1/4
M: C
%%staves [1 2 3 4]
V: 1 clef=treble
V: 2 clef=treble
V: 3 clef=treble-8
V: 4 clef=bass
K: Bb
[V:1] G/A/ [I:setbarnb 1]| 
[V:2] D | 
[V:3] B/c/ | 
[V:4] G,, | 
[V:1] BA/G/^FG/A/ | 
[V:2] G/F/EDD/^F/ | 
[V:3] dc/B/AB/c/ | 
[V:4] G,C,D,/C/ B,/A,/ | 
[V:1] BA!fermata!GB | 
[V:2] G^F!fermata!DG | 
[V:3] d/e/ A/d/!fermata!Bd | 
[V:4] G,/C,/D,!fermata!G,,G, | 
[V:1] ccdB | 
[V:2] =F/G/ABD | 
[V:3] cffg | 
[V:4] A,F,B,/A,/ G,/F,/ | 
[V:1] cc!fermata!dd | 
[V:2] G/B/ A/G/!fermata!^FG | 
[V:3] gc//d//e/!fermata!AB | 
[V:4] E,/D,/E,!fermata!D,G, | 
[V:1] ed/e/ =f/e/d | 
[V:2] G/A/BcB | 
[V:3] cFFf | 
[V:4] C,B,,A,,B,, | 
[V:1] c/B/c!fermata!Bd | 
[V:2] A/BA/!fermata!FA | 
[V:3] e/d/e/c/!fermata!dd | 
[V:4] F,F,!fermata!B,,^F, | 
[V:1] BcBA | 
[V:2] GG/^F/GF | 
[V:3] dcdd/c/ | 
[V:4] G,/G,,/A,,B,,/C,/D, | 
[V:1] G^F!fermata!G2 |]  
[V:2] G/E/D!fermata!D2 |]  
[V:3] BA/=B//c//!fermata!=B2 |]  
[V:4] E,/C,/D,!fermata!G,,2 |]  



